svg/color/avaxd.svg

<?xml version="1.0" encoding="UTF-8" ?>
<!DOCTYPE svg PUBLIC "-//W3C//DTD SVG 1.1//EN" "http://www.w3.org/Graphics/SVG/1.1/DTD/svg11.dtd">
<svg width="250pt" height="250pt" viewBox="0 0 250 250" version="1.1" xmlns="http://www.w3.org/2000/svg">
<g id="#ffffffff">
<path fill="#ffffff" opacity="1.00" d=" M 0.00 0.00 L 250.00 0.00 L 250.00 250.00 L 0.00 250.00 L 0.00 0.00 M 93.47 102.94 C 102.10 111.50 110.67 120.13 119.26 128.74 C 121.14 130.54 122.75 132.69 125.01 134.05 C 135.35 124.37 145.14 114.07 155.22 104.10 C 156.77 102.99 155.31 101.51 154.36 100.62 C 144.54 90.92 134.85 81.09 125.04 71.39 C 114.54 81.93 103.97 92.40 93.47 102.94 M 46.97 152.30 C 43.88 161.00 40.63 169.64 37.45 178.30 C 39.32 178.31 41.18 178.30 43.04 178.28 C 43.66 176.46 44.30 174.64 44.92 172.81 C 48.45 172.81 51.99 172.82 55.53 172.73 C 56.32 174.57 57.06 176.44 57.78 178.32 C 59.56 178.31 61.33 178.30 63.11 178.28 C 60.16 169.55 56.76 160.98 53.70 152.29 C 51.46 152.28 49.21 152.28 46.97 152.30 M 132.49 152.28 C 132.50 160.95 132.47 169.63 132.51 178.30 C 138.66 178.01 146.08 179.73 150.96 174.92 C 155.47 169.75 155.47 161.11 151.14 155.84 C 146.39 150.64 138.70 152.66 132.49 152.28 M 166.88 152.26 C 163.65 160.93 160.49 169.63 157.30 178.31 C 159.16 178.31 161.04 178.29 162.91 178.26 C 163.52 176.44 164.15 174.62 164.78 172.80 C 168.33 172.81 171.87 172.82 175.42 172.76 C 176.17 174.61 176.89 176.48 177.62 178.34 C 179.40 178.32 181.18 178.30 182.96 178.29 C 179.93 169.57 176.66 160.93 173.46 152.26 C 171.26 152.26 169.07 152.27 166.88 152.26 M 196.21 152.23 C 188.11 153.37 184.05 162.84 186.72 170.06 C 189.10 178.09 199.80 180.91 206.55 176.64 C 212.72 173.05 214.08 164.22 210.77 158.24 C 208.03 153.19 201.66 150.96 196.21 152.23 M 87.21 165.24 C 88.25 165.34 90.33 165.55 91.37 165.65 C 92.47 162.38 99.13 161.88 98.48 166.13 C 94.60 167.94 87.31 167.29 87.08 173.03 C 86.22 179.30 94.93 179.94 98.44 176.54 C 98.67 177.00 99.14 177.90 99.38 178.36 C 100.83 178.33 102.29 178.31 103.75 178.29 C 103.34 174.22 103.51 170.12 103.41 166.04 C 103.58 163.58 102.28 161.05 99.95 160.08 C 95.38 158.32 87.81 159.25 87.21 165.24 M 64.54 159.71 C 67.28 165.91 69.70 172.23 72.53 178.39 C 74.00 178.34 75.47 178.29 76.93 178.24 C 79.47 172.04 82.16 165.91 84.76 159.74 C 82.97 159.70 81.19 159.67 79.41 159.63 C 77.68 163.78 76.18 168.02 74.80 172.30 C 73.04 168.17 71.58 163.93 70.07 159.71 C 68.23 159.70 66.38 159.70 64.54 159.71 M 106.79 159.73 C 108.98 162.71 111.60 165.35 113.72 168.39 C 113.71 168.70 113.70 169.32 113.70 169.64 C 111.59 172.67 108.97 175.30 106.78 178.28 C 108.90 178.30 111.03 178.31 113.15 178.33 C 114.55 176.48 115.90 174.60 117.23 172.71 C 118.97 174.41 120.46 176.32 121.83 178.33 C 123.93 178.32 126.03 178.30 128.13 178.27 C 125.94 175.33 123.35 172.69 121.24 169.69 C 121.24 169.35 121.24 168.65 121.24 168.30 C 123.35 165.31 125.93 162.68 128.12 159.74 C 126.02 159.70 123.92 159.68 121.82 159.68 C 120.46 161.69 118.90 163.56 117.22 165.31 C 115.89 163.41 114.53 161.53 113.14 159.68 C 111.02 159.69 108.90 159.70 106.79 159.73 Z" />
<path fill="#ffffff" opacity="1.00" d=" M 110.71 102.87 C 120.25 102.83 129.79 102.85 139.33 102.82 C 134.66 107.77 129.76 112.50 124.98 117.34 C 120.24 112.50 115.30 107.86 110.71 102.87 Z" />
<path fill="#ffffff" opacity="1.00" d=" M 137.80 157.15 C 141.01 157.26 145.29 156.38 147.27 159.67 C 149.05 163.11 149.17 167.74 147.04 171.06 C 144.97 174.07 140.96 173.35 137.81 173.46 C 137.81 168.02 137.82 162.59 137.80 157.15 Z" />
<path fill="#ffffff" opacity="1.00" d=" M 196.24 157.41 C 200.51 155.56 206.09 158.19 206.85 162.92 C 208.70 168.30 203.98 174.68 198.16 173.57 C 190.05 173.06 188.87 160.00 196.24 157.41 Z" />
<path fill="#ffffff" opacity="1.00" d=" M 50.21 157.47 C 51.69 161.03 52.97 164.68 54.12 168.37 C 51.57 168.38 49.01 168.37 46.46 168.37 C 47.80 164.77 49.07 161.14 50.21 157.47 Z" />
<path fill="#ffffff" opacity="1.00" d=" M 166.30 168.37 C 167.62 164.74 168.90 161.10 170.11 157.43 C 171.48 161.04 172.77 164.69 173.98 168.37 C 171.42 168.38 168.86 168.38 166.30 168.37 Z" />
<path fill="#ffffff" opacity="1.00" d=" M 92.29 171.61 C 94.48 170.99 96.68 170.38 98.90 169.82 C 98.42 171.63 98.14 174.14 95.99 174.73 C 94.75 174.83 93.50 174.88 92.25 174.86 C 92.26 173.78 92.27 172.70 92.29 171.61 Z" />
</g>
<g id="#e23e57ff">
<path fill="#e23e57" opacity="1.00" d=" M 93.47 102.94 C 103.97 92.40 114.54 81.93 125.04 71.39 C 134.85 81.09 144.54 90.92 154.36 100.62 C 155.31 101.51 156.77 102.99 155.22 104.10 C 145.14 114.07 135.35 124.37 125.01 134.05 C 122.75 132.69 121.14 130.54 119.26 128.74 C 110.67 120.13 102.10 111.50 93.47 102.94 M 110.71 102.87 C 115.30 107.86 120.24 112.50 124.98 117.34 C 129.76 112.50 134.66 107.77 139.33 102.82 C 129.79 102.85 120.25 102.83 110.71 102.87 Z" />
<path fill="#e23e57" opacity="1.00" d=" M 46.97 152.30 C 49.21 152.28 51.46 152.28 53.70 152.29 C 56.76 160.98 60.16 169.55 63.11 178.28 C 61.33 178.30 59.56 178.31 57.78 178.32 C 57.06 176.44 56.32 174.57 55.53 172.73 C 51.99 172.82 48.45 172.81 44.92 172.81 C 44.30 174.64 43.66 176.46 43.04 178.28 C 41.18 178.30 39.32 178.31 37.45 178.30 C 40.63 169.64 43.88 161.00 46.97 152.30 M 50.21 157.47 C 49.07 161.14 47.80 164.77 46.46 168.37 C 49.01 168.37 51.57 168.38 54.12 168.37 C 52.97 164.68 51.69 161.03 50.21 157.47 Z" />
<path fill="#e23e57" opacity="1.00" d=" M 132.49 152.28 C 138.70 152.66 146.39 150.64 151.14 155.84 C 155.47 161.11 155.47 169.75 150.96 174.92 C 146.08 179.73 138.66 178.01 132.51 178.30 C 132.47 169.63 132.50 160.95 132.49 152.28 M 137.80 157.15 C 137.82 162.59 137.81 168.02 137.81 173.46 C 140.96 173.35 144.97 174.07 147.04 171.06 C 149.17 167.74 149.05 163.11 147.27 159.67 C 145.29 156.38 141.01 157.26 137.80 157.15 Z" />
<path fill="#e23e57" opacity="1.00" d=" M 166.88 152.26 C 169.07 152.27 171.26 152.26 173.46 152.26 C 176.66 160.93 179.93 169.57 182.96 178.29 C 181.18 178.30 179.40 178.32 177.62 178.34 C 176.89 176.48 176.17 174.61 175.42 172.76 C 171.87 172.82 168.33 172.81 164.78 172.80 C 164.15 174.62 163.52 176.44 162.91 178.26 C 161.04 178.29 159.16 178.31 157.30 178.31 C 160.49 169.63 163.65 160.93 166.88 152.26 M 166.30 168.37 C 168.86 168.38 171.42 168.38 173.98 168.37 C 172.77 164.69 171.48 161.04 170.11 157.43 C 168.90 161.10 167.62 164.74 166.30 168.37 Z" />
<path fill="#e23e57" opacity="1.00" d=" M 196.21 152.23 C 201.66 150.96 208.03 153.19 210.77 158.24 C 214.08 164.22 212.72 173.05 206.55 176.64 C 199.80 180.91 189.10 178.09 186.72 170.06 C 184.05 162.84 188.11 153.37 196.21 152.23 M 196.24 157.41 C 188.87 160.00 190.05 173.06 198.16 173.57 C 203.98 174.68 208.70 168.30 206.85 162.92 C 206.09 158.19 200.51 155.56 196.24 157.41 Z" />
<path fill="#e23e57" opacity="1.00" d=" M 87.21 165.24 C 87.81 159.25 95.38 158.32 99.95 160.08 C 102.28 161.05 103.58 163.58 103.41 166.04 C 103.51 170.12 103.34 174.22 103.75 178.29 C 102.29 178.31 100.83 178.33 99.38 178.36 C 99.14 177.90 98.67 177.00 98.44 176.54 C 94.93 179.94 86.22 179.30 87.08 173.03 C 87.31 167.29 94.60 167.94 98.48 166.13 C 99.13 161.88 92.47 162.38 91.37 165.65 C 90.33 165.55 88.25 165.34 87.21 165.24 M 92.29 171.61 C 92.27 172.70 92.26 173.78 92.25 174.86 C 93.50 174.88 94.75 174.83 95.99 174.73 C 98.14 174.14 98.42 171.63 98.90 169.82 C 96.68 170.38 94.48 170.99 92.29 171.61 Z" />
<path fill="#e23e57" opacity="1.00" d=" M 64.54 159.71 C 66.38 159.70 68.23 159.70 70.07 159.71 C 71.58 163.93 73.04 168.17 74.80 172.30 C 76.18 168.02 77.68 163.78 79.41 159.63 C 81.19 159.67 82.97 159.70 84.76 159.74 C 82.16 165.91 79.47 172.04 76.93 178.24 C 75.47 178.29 74.00 178.34 72.53 178.39 C 69.70 172.23 67.28 165.91 64.54 159.71 Z" />
<path fill="#e23e57" opacity="1.00" d=" M 106.79 159.73 C 108.90 159.70 111.02 159.69 113.14 159.68 C 114.53 161.53 115.89 163.41 117.22 165.31 C 118.90 163.56 120.46 161.69 121.82 159.68 C 123.92 159.68 126.02 159.70 128.12 159.74 C 125.93 162.68 123.35 165.31 121.24 168.30 C 121.24 168.65 121.24 169.35 121.24 169.69 C 123.35 172.69 125.94 175.33 128.13 178.27 C 126.03 178.30 123.93 178.32 121.83 178.33 C 120.46 176.32 118.97 174.41 117.23 172.71 C 115.90 174.60 114.55 176.48 113.15 178.33 C 111.03 178.31 108.90 178.30 106.78 178.28 C 108.97 175.30 111.59 172.67 113.70 169.64 C 113.70 169.32 113.71 168.70 113.72 168.39 C 111.60 165.35 108.98 162.71 106.79 159.73 Z" />
</g>
</svg>

<?xml version="1.0" encoding="utf-8"?>
<!-- Generator: Adobe Illustrator 26.0.3, SVG Export Plug-In . SVG Version: 6.00 Build 0)  -->
<svg version="1.1" id="Layer_1" xmlns="http://www.w3.org/2000/svg" xmlns:xlink="http://www.w3.org/1999/xlink" x="0px" y="0px"
	 viewBox="0 0 250 250" style="enable-background:new 0 0 250 250;" xml:space="preserve">
<style type="text/css">
	.st0{fill:#FFFFFF;}
	.st1{fill:#E23E57;}
</style>
<g id="_x23_ffffffff">
	<path class="st0" d="M110.7,102.9c9.5,0,19.1,0,28.6-0.1c-4.7,4.9-9.6,9.7-14.3,14.5C120.2,112.5,115.3,107.9,110.7,102.9z"/>
	<path class="st0" d="M137.8,157.1c3.2,0.1,7.5-0.8,9.5,2.5c1.8,3.4,1.9,8.1-0.2,11.4c-2.1,3-6.1,2.3-9.2,2.4
		C137.8,168,137.8,162.6,137.8,157.1z"/>
	<path class="st0" d="M196.2,157.4c4.3-1.9,9.8,0.8,10.6,5.5c1.8,5.4-2.9,11.8-8.7,10.7C190.1,173.1,188.9,160,196.2,157.4z"/>
	<path class="st0" d="M50.2,157.5c1.5,3.6,2.8,7.2,3.9,10.9c-2.5,0-5.1,0-7.7,0C47.8,164.8,49.1,161.1,50.2,157.5z"/>
	<path class="st0" d="M166.3,168.4c1.3-3.6,2.6-7.3,3.8-10.9c1.4,3.6,2.7,7.3,3.9,10.9C171.4,168.4,168.9,168.4,166.3,168.4z"/>
	<path class="st0" d="M92.3,171.6c2.2-0.6,4.4-1.2,6.6-1.8c-0.5,1.8-0.8,4.3-2.9,4.9c-1.2,0.1-2.5,0.2-3.7,0.1
		C92.3,173.8,92.3,172.7,92.3,171.6z"/>
</g>
<g id="_x23_e23e57ff">
	<path class="st1" d="M93.5,102.9c10.5-10.5,21.1-21,31.6-31.6c9.8,9.7,19.5,19.5,29.3,29.2c0.9,0.9,2.4,2.4,0.9,3.5
		c-10.1,10-19.9,20.3-30.2,30c-2.3-1.4-3.9-3.5-5.8-5.3C110.7,120.1,102.1,111.5,93.5,102.9 M110.7,102.9c4.6,5,9.5,9.6,14.3,14.5
		c4.8-4.8,9.7-9.6,14.3-14.5C129.8,102.8,120.2,102.8,110.7,102.9z"/>
	<path class="st1" d="M47,152.3c2.2,0,4.5,0,6.7,0c3.1,8.7,6.5,17.3,9.4,26c-1.8,0-3.5,0-5.3,0c-0.7-1.9-1.5-3.8-2.2-5.6
		c-3.5,0.1-7.1,0.1-10.6,0.1c-0.6,1.8-1.3,3.7-1.9,5.5c-1.9,0-3.7,0-5.6,0C40.6,169.6,43.9,161,47,152.3 M50.2,157.5
		c-1.1,3.7-2.4,7.3-3.8,10.9c2.5,0,5.1,0,7.7,0C53,164.7,51.7,161,50.2,157.5z"/>
	<path class="st1" d="M132.5,152.3c6.2,0.4,13.9-1.6,18.6,3.6c4.3,5.3,4.3,13.9-0.2,19.1c-4.9,4.8-12.3,3.1-18.5,3.4
		C132.5,169.6,132.5,160.9,132.5,152.3 M137.8,157.1c0,5.4,0,10.9,0,16.3c3.2-0.1,7.2,0.6,9.2-2.4c2.1-3.3,2-7.9,0.2-11.4
		C145.3,156.4,141,157.3,137.8,157.1z"/>
	<path class="st1" d="M166.9,152.3c2.2,0,4.4,0,6.6,0c3.2,8.7,6.5,17.3,9.5,26c-1.8,0-3.6,0-5.3,0.1c-0.7-1.9-1.4-3.7-2.2-5.6
		c-3.6,0.1-7.1,0.1-10.6,0c-0.6,1.8-1.3,3.6-1.9,5.5c-1.9,0-3.8,0.1-5.6,0.1C160.5,169.6,163.6,160.9,166.9,152.3 M166.3,168.4
		c2.6,0,5.1,0,7.7,0c-1.2-3.7-2.5-7.3-3.9-10.9C168.9,161.1,167.6,164.7,166.3,168.4z"/>
	<path class="st1" d="M196.2,152.2c5.4-1.3,11.8,1,14.6,6c3.3,6,1.9,14.8-4.2,18.4c-6.8,4.3-17.4,1.4-19.8-6.6
		C184.1,162.8,188.1,153.4,196.2,152.2 M196.2,157.4c-7.4,2.6-6.2,15.6,1.9,16.2c5.8,1.1,10.5-5.3,8.7-10.7
		C206.1,158.2,200.5,155.6,196.2,157.4z"/>
	<path class="st1" d="M87.2,165.2c0.6-6,8.2-6.9,12.7-5.2c2.3,1,3.6,3.5,3.5,6c0.1,4.1-0.1,8.2,0.3,12.2c-1.5,0-2.9,0-4.4,0.1
		c-0.2-0.5-0.7-1.4-0.9-1.8c-3.5,3.4-12.2,2.8-11.4-3.5c0.2-5.7,7.5-5.1,11.4-6.9c0.6-4.2-6-3.8-7.1-0.5
		C90.3,165.6,88.2,165.3,87.2,165.2 M92.3,171.6c0,1.1,0,2.2,0,3.2c1.2,0,2.5,0,3.7-0.1c2.2-0.6,2.4-3.1,2.9-4.9
		C96.7,170.4,94.5,171,92.3,171.6z"/>
	<path class="st1" d="M64.5,159.7c1.8,0,3.7,0,5.5,0c1.5,4.2,3,8.5,4.7,12.6c1.4-4.3,2.9-8.5,4.6-12.7c1.8,0,3.6,0.1,5.3,0.1
		c-2.6,6.2-5.3,12.3-7.8,18.5c-1.5,0-2.9,0.1-4.4,0.1C69.7,172.2,67.3,165.9,64.5,159.7z"/>
	<path class="st1" d="M106.8,159.7c2.1,0,4.2,0,6.3-0.1c1.4,1.9,2.8,3.7,4.1,5.6c1.7-1.8,3.2-3.6,4.6-5.6c2.1,0,4.2,0,6.3,0.1
		c-2.2,2.9-4.8,5.6-6.9,8.6c0,0.3,0,1.1,0,1.4c2.1,3,4.7,5.6,6.9,8.6c-2.1,0-4.2,0.1-6.3,0.1c-1.4-2-2.9-3.9-4.6-5.6
		c-1.3,1.9-2.7,3.8-4.1,5.6c-2.1,0-4.2,0-6.4-0.1c2.2-3,4.8-5.6,6.9-8.6c0-0.3,0-0.9,0-1.2C111.6,165.4,109,162.7,106.8,159.7z"/>
</g>
</svg>
